X:1
T:James Gibb editions
T:Frère Thibault - Certon
T:#
%%score [ 1 2 3 4 ]
L:1/8
Q:1/4=108
M:2/2
K:F
V:1 treble nm="Soprano" snm="S"
V:2 treble nm="Alto" snm="A"
V:3 treble nm="Tenor" snm="T"
V:4 bass nm="Bass" snm="B"
V:1
"^Clément Marot\n(1496-1544)""^Frère Thibault""^Pierre Certon\n(1510-72)" z8 | G2 GG c4 | %2
w: |Frè- re Thi- bault,|
 z2 c2 cc f2- | f2 f2 e2 d2 |[M:2/2] d2 ^c2 d4 | z2 d2 c2 B2 | A2 G2 d3 c | B2 B2 (A2 G2- | %8
w: Frè- re Thi- bault|* sé- jour- né|gros et gras,|Ti- rait de|nuit u- ne garce|en che- mi\- *|
 G2 ^F2) G4- | G4 G2 GG | c4 z2 c2 | cc f4 f2 | e2 d2 d2 ^c2 | d4 z2 d2 | c2 B2 A2 G2 | %15
w: * * se.|* Par le treil-|lis, par|le treil- lis de|sa chambre où les|bras El-|le pas- sa puis|
 d3 c B2 B2 | (A2 G4 ^F2) ||[M:3/2][Q:1/4=162] G8 B4 | B8 A4 ||[M:4/4][Q:1/4=108] A8- | A4 z2 G2 | %21
w: la tête y a|mi\- * *|se, Et|puis le|sein,|* mais|
 B2 B2 A2 F2 |[M:4/4] (AGAB c2 B2- | B2 A2) B2 d2 | dB c2 d2 BB | A6 A2 | A2 c2 (B2 A2) | B4 A4 | %28
w: el- le fut bien|pri\- * * * * *|* * se, Car|le fes- sier, car le fes-|sier y|pas- ser ne *|peut onc|
 z4 A2 AA | d3 d d2 d2 | d2 ^c2 d4 ||[M:3/2] z2 A2 B2 G2 A4 ||[M:4/4] c4 B2 B2 | A4 z2 f2 | %34
w: Par la mort|bieu, se dit le|moine a- donc|Il ne m'en chault,|il ne m'en|chault de|
 eedd ^c2 d2 | f2 ee dd ^c2 ||[M:3/2] d4 A2 A4 A2 | B4 B2 B4 B2 ||[M:4/4] A2 d2 f3 e | %39
w: bras té- tins ne tê- te,|de bras té- tins ne tê-|te. Pas- sez le|cul, pas- ser le|cul, ou vous re-|
 (d2 c3 B B2- | B2) A2 B2 B2 | c2 d2 G2 d2 | d2 d2 c2 A2 |[M:4/4] B4 A4 | z2 B2 B2 A2 | %45
w: tir\- * * *|* ez donc, Je|ne sau- rais sans|lui vous fai- re|fé- te,|sans lui vous|
 (G2 A3) G (G2- | G2 ^F2) G2 B2 | c2 d2 G2 d2 | d2 d2 c2 A2 | B4 A4 | %50
w: fai\- * re fê\-|* * te, Je|ne sau- rais sans|lui vous fai- re|fê- te,|
 z2[Q:1/4=107] B2[Q:1/4=105] B2[Q:1/4=103] A2 | %51
w: sans lui vous|
[Q:1/4=101] (G2[Q:1/4=99] A3)[Q:1/4=97] G[Q:1/4=96] (G2- | %52
w: fai\- * re fê\-|
[Q:1/4=94] G2[Q:1/4=92] ^F2)[Q:1/4=92] G4 |] %53
w: * * te.|
V:2
 z4 D2 DD | E4 G2 GG | A6 A2 | B2 c2 (cBAG |[M:2/2] A2 A2 F2 F2 | E2 D2 A2 F2 | F2 D2 F2 G2 | %7
w: Frè- re Thi-|bault, Frè- re Thi-|bault sé-|jour- né gros * * *|* et gras, Ti-|rait de nuit, ti-|rait de nuit u-|
 G2 G2 _E2 C2 | D4 B,2 D2 | DD G2 z2 E2 | EE G2 A2 AA | A2 A2 B2 c2 | c2 B2) A4 | F2 F2 E2 D2 | %14
w: ne garce en che-|mi- se. Par|le treil- lis, par|le treil- lis, par le treil-|lis de sa chambre|où * les|bras El- le pas|
 A2 F2 F2 D2 | F2 z G G2 G2 | _E2 C2 D4 ||[M:3/2] D8 G4 | G8 E4 ||[M:4/4] F2 D2 F2 F2 | C2 C2 E4 | %21
w: sa, el- le pas-|sa puis la tête|y a mi-|se, Et|puis le|sein, mais el- le|fut bien pri-|
 D (CDE) F2 F2 |[M:4/4] F2 F2 (G2 E2 | F4) D2 F2 | GG E2 F2 GG | E2 F2 F4- | F2 E2 (G2 F2) | %27
w: se, mais * * el- le|fut bien pri\- *|* se, Car|le fes- sier, car le fes-|sier y pas\-|* ser ne *|
 G4 F2 A2 | AA A2 F2 FF | B2 B2 A2 A2 | B2 A2 (F2 G2) ||[M:3/2] A4 z2 G2 G2 ^F2 || %32
w: peut onc Par|la mort bieu, par la mort|bieu, se dit le|moi- ne a\- *|donc Il ne m'en|
[M:4/4] G2 E4 D2- | D2 C2 D2 A2 | ccBB A2 A2 | A2 cc BB A2 ||[M:3/2] F4 F2 F4 F2 | G4 D2 G4 G2 || %38
w: chault, il ne|* m'en chault de|bras té- tins ne tê- te,|de bras té- tins ne tê-|te. Pas- sez le|cul, pas- ser le|
[M:4/4] F2 D2 (DEFG | A6) F2 | F2 F2 D4 | z4 z2 F2 | G4 (A2 D2- |[M:4/4] D2 G4 ^F2) | G2 D2 F2 F2 | %45
w: cul, ou vous * * *|* re-|tir- ez donc,|Je|ne sau\- *||rais sans lui vous|
 D2 F2 (F_EDC | D4) B,4 | z4 z2 F2 | G4 A2 (D2- | D2 G4 ^F2 | G2) D2 F2 F2 | D2 F2 (F_EDC | %52
w: fai- re fê\- * * *|* te,|Je|ne sau- rais||* sans lui vous|fai- re fê\- * * *|
 D4) =B,4 |] %53
w: * te.|
V:3
 z4 G2 GG | c4 z2 c2 | cc f4 f2 | d2 f2 (gf fe/d/ |[M:2/2] e2 e2 d4 | z4 z2 d2 | c2 B2 A2 G2 | %7
w: Frè- re Thi-|bault, Frè-|re Thi- bault sé-|jour- né gros * * * *|* et gras.|Ti-|rait de nuit u-|
 d2 d2 (cB) AG) | A4 G4 | G2 GG c4 | z2 c2 cc f2- | f2 f2 d2 f2 | (gf fe/d/ e2) e2 | d4 z4 | %14
w: ne garce en * che\- *|mi- se.|Par le treil- lis,|par le treil- lis|* de sa chambre|où * * * * * les|bras|
 z2 d2 c2 B2 | A2 G2 d2 d2 | (cB) (AG) A4 ||[M:3/2] G8 d4 | d8 ^c4 ||[M:4/4] d8 | z2 A2 c2 c2 | %21
w: El- le pas-|sa puis la tête|y * a * mi-|se, Et|puis le|sein,|mais el- le|
 B2 B2 (d4 |[M:4/4] cBcd _edcB | c4) B2 B2 | GG A2 d2 dB | c2 d2 A2 d2 | d2 c2 d4- | d8 | %28
w: fut bien pri\-||* se, Car|le fes- sier, car le fes-|sier y pas- ser|ne peut onc||
 z4 d2 dd | d2 d2 f2 f2 | g2 e2 (d2 g2- ||[M:3/2] g2 f2 g4) z2 d2 ||[M:4/4] e2 c2 d3 g | %33
w: Par la mort|bieu, se dit le|moi- ne a\- *|* * donc Il|ne m'en chault, il|
 f2 e2 d2 f2 | gafg e2 f2 | f2 ga fg e2 ||[M:3/2] d4 d2 d4 d2 | G4 G2 d4 d2 ||[M:4/4] d4 z2 d2 | %39
w: ne m'en chault de|bras té- tins ne tê- te,|de bras té- tins ne tê-|te. Pas- sez le|cul, pas- ser le|cul, ou|
 f2 f2 (e2 d2) | c4 B4 | z2 B2 c2 d2 | G4 z4 |[M:4/4] z2 B2 c2 d2 | (GABc d2) A2 | B2 d2 c2 B2 | %46
w: vous re- tir\- *|ez donc,|Je ne sau-|rais,|je ne sau-|rais * * * * sans|lui vous fai- re|
 A4 G4 | z2 B2 c2 d2 | G4 z4 | z2 B2 c2 d2 | (GABc d2) A2 | B2 d2 c2 B2 | A4 G4 |] %53
w: fê- te,|Je ne sau-|rais,|je ne sau-|rais * * * * sans|lui vous fai- re|fê- te.|
V:4
 z8 | z4 C,2 C,C, | F,4 F,2 F,F, | B,2 F,2 C2 D2 |[M:2/2] A,2 A,2 D,2 D2 | C2 B,2 A,2 B,2 | %6
w: |Frè- re Thi-|bault, Frè- re Thi-|bault sé- jour- né|gros et gras, Ti-|rait de nuit, ti-|
 F,2 G,2 D,2 G,2 | G,2 G,2 C,2 _E,2 | D,4 G,4 | z8 | C,2 C,C, F,4 | F,2 F,F, B,2 F,2 | %12
w: rait de nuit u-|ne garce en che-|mi- se.||Par le treil- lis,|par le treil- lis de|
 C2 D2 A,2 A,2 | D,2 D2 C2 B,2 | A,2 B,2 F,2 G,2 | D,2 G,2 G,2 G,2 | C,2 _E,2 D,4 || %17
w: sa chambre où les|bras El- le pas-|sa, el- le pas-|sa puis la tête|y a mi-|
[M:3/2] G,8 G,4 | G,8 A,4 ||[M:4/4] D,4 z2 D,2 | F,2 F,2 C,2 C,2 | G,4 D,2 D,2 | %22
w: se, Et|puis le|sein, mais|el- le fut bien|pri- se, mais|
[M:4/4] F,2 F,2 C,2 G,2 | F,4 B,,4 | z4 B,2 G,G, | A,2 D,2 D,4- | D,2 A,2 (G,2 D,2) | G,4 D,4 | %28
w: el- le fut bien|pri- se,|Car le fes-|sier y pas\-|* ser ne *|peut onc|
 D2 DD D2 z2 | G,2 G,G, D2 D2 | G,2 A,2 B,2 G,2 ||[M:3/2] D4 G,4 z4 ||[M:4/4] z2 A,2 B,2 G,2 | %33
w: Par la mort bieu,|par la mort bieu, se|dit le moi- ne|a- donc|Il ne m'en|
 A,4 z2 D2 | CA,B,G, A,2 D,2 | D2 CA, B,G, A,2 ||[M:3/2] D,4 z4 z4 | z4 G,2 G,4 G,2 || %38
w: chault de|bras té- tins ne tê- te,|de bras té- tins ne tê-|te.|Pas- sez le|
[M:4/4] D,4 z2 D,2 | (D,E,F,G, A,2) B,2 | F,2 F,2 B,,4 | z8 | z2 B,2 C2 D2 |[M:4/4] G,4 z2 D,2 | %44
w: cul ou|vous * * * * re-|tir- ez donc||Je ne sau-|rais sans|
 _E,2 G,2 G,2 F,2 | (G,2 D,2 F,2 G,2 | D,4) G,4 | z8 | z2 B,2 C2 D2 | G,4 z2 D,2 | %50
w: lui vous fai- re|fê\- * * *|* te,||Je ne sau-|rais sans|
 _E,2 G,2 G,2 F,2 | (G,2 D,2 F,2 G,2 | D,4) G,4 |] %53
w: lui vous fai- re|fê\- * * *|* te.|

